dist/static/img/service/context-2.svg

<svg width="48" height="48" viewBox="0 0 48 48" fill="none" xmlns="http://www.w3.org/2000/svg">
<path d="M3.64453 13.9885H11.06C11.4483 13.9885 11.7631 13.6737 11.7631 13.2853C11.7631 12.8969 11.4483 12.5822 11.06 12.5822H3.64453C3.25622 12.5822 2.94141 12.8969 2.94141 13.2853C2.94141 13.6737 3.25613 13.9885 3.64453 13.9885Z" fill="#1F5AFF"/>
<path d="M10.8053 17.3735H7.87598C7.48766 17.3735 7.17285 17.6882 7.17285 18.0766C7.17285 18.465 7.48766 18.7797 7.87598 18.7797H10.8053C11.1936 18.7797 11.5084 18.465 11.5084 18.0766C11.5084 17.6882 11.1936 17.3735 10.8053 17.3735Z" fill="#1F5AFF"/>
<path d="M0.703125 22.2495H7.87613C8.26444 22.2495 8.57925 21.9347 8.57925 21.5463C8.57925 21.1579 8.26444 20.8432 7.87613 20.8432H0.703125C0.314812 20.8432 0 21.1579 0 21.5463C0 21.9347 0.314812 22.2495 0.703125 22.2495Z" fill="#1F5AFF"/>
<path d="M11.7631 34.7146C11.7631 34.3262 11.4483 34.0115 11.06 34.0115H3.64453C3.25622 34.0115 2.94141 34.3262 2.94141 34.7146C2.94141 35.103 3.25622 35.4177 3.64453 35.4177H11.06C11.4483 35.4177 11.7631 35.103 11.7631 34.7146Z" fill="#1F5AFF"/>
<path d="M10.8053 29.2203H7.87598C7.48766 29.2203 7.17285 29.5351 7.17285 29.9235C7.17285 30.3119 7.48766 30.6266 7.87598 30.6266H10.8053C11.1936 30.6266 11.5084 30.3119 11.5084 29.9235C11.5084 29.5351 11.1936 29.2203 10.8053 29.2203Z" fill="#1F5AFF"/>
<path d="M8.57925 26.4537C8.57925 26.0653 8.26444 25.7506 7.87613 25.7506H0.703125C0.314812 25.7506 0 26.0653 0 26.4537C0 26.8421 0.314812 27.1569 0.703125 27.1569H7.87613C8.26444 27.1569 8.57925 26.8421 8.57925 26.4537Z" fill="#1F5AFF"/>
<path d="M29.9561 15.5466C30.3445 15.5466 30.6592 15.2319 30.6592 14.8435V13.7702C30.6592 13.3818 30.3445 13.0671 29.9561 13.0671C29.5676 13.0671 29.2529 13.3818 29.2529 13.7702V14.8435C29.2529 15.2319 29.5676 15.5466 29.9561 15.5466Z" fill="#1F5AFF"/>
<path d="M37.6868 16.2692C37.4121 15.9947 36.967 15.9947 36.6924 16.2692L35.9335 17.0281C35.6589 17.3028 35.6589 17.7479 35.9335 18.0225C36.2083 18.2971 36.6533 18.297 36.9279 18.0225L37.6868 17.2636C37.9613 16.989 37.9613 16.5439 37.6868 16.2692Z" fill="#1F5AFF"/>
<path d="M39.1123 23.2969C38.7239 23.2969 38.4092 23.6116 38.4092 24C38.4092 24.3884 38.7239 24.7031 39.1123 24.7031H40.1855C40.5739 24.7031 40.8886 24.3884 40.8886 24C40.8886 23.6116 40.5739 23.2969 40.1855 23.2969H39.1123Z" fill="#1F5AFF"/>
<path d="M36.9279 29.9774C36.6532 29.7029 36.2081 29.7029 35.9335 29.9774C35.6589 30.2521 35.6589 30.6972 35.9335 30.9718L36.6924 31.7307C36.9672 32.0053 37.4122 32.0052 37.6868 31.7307C37.9614 31.456 37.9614 31.0109 37.6868 30.7363L36.9279 29.9774Z" fill="#1F5AFF"/>
<path d="M29.2529 33.1566V34.2298C29.2529 34.6182 29.5676 34.9329 29.9561 34.9329C30.3445 34.9329 30.6592 34.6182 30.6592 34.2298V33.1566C30.6592 32.7682 30.3445 32.4535 29.9561 32.4535C29.5676 32.4535 29.2529 32.7683 29.2529 33.1566Z" fill="#1F5AFF"/>
<path d="M22.9844 29.9774L22.2255 30.7363C21.9509 31.011 21.9509 31.4561 22.2255 31.7307C22.5002 32.0053 22.9453 32.0052 23.2198 31.7307L23.9787 30.9718C24.2533 30.6971 24.2533 30.252 23.9787 29.9774C23.7042 29.7029 23.259 29.7029 22.9844 29.9774Z" fill="#1F5AFF"/>
<path d="M19.7256 23.2969C19.3373 23.2969 19.0225 23.6116 19.0225 24C19.0225 24.3884 19.3373 24.7031 19.7256 24.7031H20.7988C21.1871 24.7031 21.502 24.3884 21.502 24C21.502 23.6116 21.1871 23.2969 20.7988 23.2969H19.7256Z" fill="#1F5AFF"/>
<path d="M23.9787 17.0281L23.2198 16.2692C22.9452 15.9947 22.5 15.9947 22.2255 16.2692C21.9509 16.5439 21.9509 16.989 22.2255 17.2636L22.9844 18.0225C23.2591 18.2971 23.7042 18.297 23.9787 18.0225C24.2533 17.7479 24.2533 17.3028 23.9787 17.0281Z" fill="#1F5AFF"/>
<path d="M33.737 24C33.737 23.6116 33.4223 23.2969 33.0339 23.2969H30.6592V18.0765C30.6592 17.6881 30.3445 17.3734 29.9561 17.3734C29.5676 17.3734 29.2529 17.6881 29.2529 18.0765V24C29.2529 24.3884 29.5676 24.7032 29.9561 24.7032H33.0339C33.4222 24.7032 33.737 24.3884 33.737 24Z" fill="#1F5AFF"/>
<path d="M43.2886 23.8839C43.6763 23.8604 43.9714 23.5271 43.9478 23.1396C43.5006 15.7612 37.3547 9.98138 29.9561 9.98138C22.2263 9.98138 15.9375 16.2701 15.9375 24.0001C15.9375 31.73 22.2263 38.0187 29.9561 38.0187C36.8813 38.0187 42.7905 32.9448 43.8185 26.0978C43.8761 25.7138 43.6116 25.3557 43.2275 25.2981C42.8444 25.2406 42.4854 25.5049 42.4278 25.8891C41.5043 32.0404 36.1928 36.6126 29.9561 36.6126C23.0017 36.6126 17.3438 30.9547 17.3438 24.0002C17.3438 17.0457 23.0017 11.3877 29.9561 11.3877C36.6125 11.3877 42.1417 16.5872 42.5441 23.2249C42.5676 23.6123 42.9006 23.9064 43.2886 23.8839Z" fill="#1F5AFF"/>
<path d="M29.9554 5.95587C27.4822 5.95587 25.059 6.46897 22.8287 7.4285H10.4229C10.0345 7.4285 9.71973 7.74322 9.71973 8.13162C9.71973 8.52003 10.0345 8.83475 10.4229 8.83475H20.1834C18.8637 9.68412 17.6488 10.7086 16.5776 11.8914C16.317 12.1791 16.3389 12.6237 16.6268 12.8845C16.9147 13.1452 17.3591 13.1232 17.6199 12.8353C20.7701 9.35703 25.2663 7.36212 29.9554 7.36212C39.1296 7.36212 46.5934 14.8258 46.5934 24C46.5934 33.1741 39.1297 40.6379 29.9554 40.6379C20.7812 40.6379 13.3175 33.1742 13.3175 24C13.3175 20.7874 14.2352 17.6693 15.9713 14.9826C16.182 14.6564 16.0884 14.2212 15.7623 14.0105C15.4361 13.7998 15.0009 13.8932 14.7901 14.2195C12.9067 17.134 11.9112 20.516 11.9112 24C11.9112 30.3531 15.2118 35.9492 20.1879 39.1653H10.4229C10.0346 39.1653 9.71982 39.48 9.71982 39.8684C9.71982 40.2568 10.0346 40.5716 10.4229 40.5716H22.819C25.009 41.5183 27.4219 42.0442 29.9555 42.0442C39.905 42.0442 47.9996 33.9496 47.9996 24C47.9996 14.0504 39.905 5.95587 29.9554 5.95587Z" fill="#1F5AFF"/>
</svg>

<svg width="48" height="48" viewBox="0 0 48 48" fill="none" xmlns="http://www.w3.org/2000/svg"><path d="M3.645 13.989h7.415a.703.703 0 000-1.407H3.645a.703.703 0 100 1.406zm7.16 3.384H7.876a.703.703 0 100 1.407h2.93a.703.703 0 100-1.407zM.703 22.25h7.173a.703.703 0 000-1.407H.703a.703.703 0 100 1.407zm11.06 12.465a.703.703 0 00-.703-.704H3.645a.703.703 0 100 1.407h7.415a.703.703 0 00.703-.703zm-.958-5.495H7.876a.703.703 0 000 1.407h2.93a.703.703 0 100-1.407zM8.58 26.454a.703.703 0 00-.704-.703H.703a.703.703 0 100 1.406h7.173a.703.703 0 00.703-.703zm21.376-10.907a.703.703 0 00.703-.704V13.77a.703.703 0 10-1.406 0v1.074c0 .388.315.703.703.703zm7.731.723a.703.703 0 00-.995 0l-.758.758a.703.703 0 10.994.995l.759-.76a.703.703 0 000-.994zm1.425 7.027a.703.703 0 100 1.406h1.073a.703.703 0 100-1.406h-1.073zm-2.184 6.68a.703.703 0 00-.994.995l.758.759a.703.703 0 00.995-.995l-.76-.759zm-7.675 3.18v1.073a.703.703 0 101.406 0v-1.073a.703.703 0 10-1.406 0zm-6.269-3.18l-.759.76a.703.703 0 00.995.994l.759-.76a.703.703 0 00-.995-.994zm-3.258-6.68a.703.703 0 100 1.406h1.073a.703.703 0 100-1.406h-1.073zm4.253-6.269l-.76-.759a.703.703 0 00-.994.995l.76.759a.703.703 0 10.994-.995zM33.737 24a.703.703 0 00-.703-.703h-2.375v-5.22a.703.703 0 10-1.406 0V24c0 .388.315.703.703.703h3.078a.703.703 0 00.703-.703z" fill="#1F5AFF"/><path d="M43.289 23.884a.703.703 0 00.659-.744C43.5 15.76 37.355 9.98 29.956 9.98c-7.73 0-14.018 6.29-14.018 14.02 0 7.729 6.288 14.018 14.018 14.018 6.925 0 12.835-5.074 13.863-11.921a.703.703 0 10-1.391-.209c-.924 6.151-6.235 10.724-12.472 10.724-6.954 0-12.612-5.658-12.612-12.613 0-6.954 5.658-12.612 12.612-12.612 6.656 0 12.186 5.2 12.588 11.837a.704.704 0 00.745.659z" fill="#1F5AFF"/><path d="M29.955 5.956c-2.473 0-4.896.513-7.126 1.472H10.423a.703.703 0 100 1.407h9.76a18.024 18.024 0 00-3.605 3.056.703.703 0 101.042.944 16.674 16.674 0 0112.335-5.473c9.175 0 16.638 7.464 16.638 16.638 0 9.174-7.463 16.638-16.638 16.638-9.174 0-16.637-7.464-16.637-16.638 0-3.213.917-6.33 2.653-9.017a.703.703 0 00-1.18-.764A17.979 17.979 0 0011.91 24c0 6.353 3.3 11.95 8.277 15.165h-9.765a.703.703 0 100 1.407h12.396a17.943 17.943 0 007.137 1.472C39.904 42.044 48 33.95 48 24c0-9.95-8.095-18.044-18.045-18.044z" fill="#1F5AFF"/></svg>
